epam-assets/icon-sources/18/content-filter_list.svg

<svg xmlns="http://www.w3.org/2000/svg" width="18" height="18" fill="none" viewBox="0 0 18 18">
  <path fill="#6C6F80" fill-rule="evenodd" d="M7.5 13.5h3V12h-3v1.5Zm-5.25-9V6h13.5V4.5H2.25ZM4.5 9.75h9v-1.5h-9v1.5Z" clip-rule="evenodd"/>
</svg>

<svg width="18" height="18" viewBox="0 0 18 18" fill="none" xmlns="http://www.w3.org/2000/svg">
<g id="18/content-filter_list">
<path id="icon" fill-rule="evenodd" clip-rule="evenodd" d="M7.5 13.5H10.5V12H7.5V13.5ZM2.25 4.5V6H15.75V4.5H2.25ZM4.5 9.75H13.5V8.25H4.5V9.75Z" fill="#6C6F80"/>
</g>
</svg>
